www/assets/icons/person_2.svg

<svg xmlns="http://www.w3.org/2000/svg" width="24" height="24" viewBox="0 0 24 24" fill='currentColor'><path d="M18.39 14.56C16.71 13.7 14.53 13 12 13s-4.71.7-6.39 1.56A2.97 2.97 0 0 0 4 17.22V20h16v-2.78c0-1.12-.61-2.15-1.61-2.66M9.78 12h4.44c1.21 0 2.14-1.06 1.98-2.26l-.32-2.45A3.93 3.93 0 0 0 12 4a3.93 3.93 0 0 0-3.88 3.29L7.8 9.74c-.16 1.2.77 2.26 1.98 2.26"/></svg>

<svg width="24" height="24" viewBox="0 0 24 24" xmlns="http://www.w3.org/2000/svg" fill='currentColor'><path d="M18.39 14.56C16.71 13.7 14.53 13 12 13C9.47 13 7.29 13.7 5.61 14.56C4.61 15.07 4 16.1 4 17.22V20H20V17.22C20 16.1 19.39 15.07 18.39 14.56Z"/><path d="M9.78 12H14.22C15.43 12 16.36 10.94 16.2 9.74L15.88 7.29C15.57 5.39 13.92 4 12 4C10.08 4 8.43 5.39 8.12 7.29L7.8 9.74C7.64 10.94 8.57 12 9.78 12Z"/></svg>
